src/icons/outline/symbols/checklist.svg

<svg width="24" height="24" viewBox="0 0 24 24" fill="none" xmlns="http://www.w3.org/2000/svg">
<g clip-path="url(#clip0_402_295)">
<path d="M6.87109 11.2588C10.1095 11.259 12.7412 13.8914 12.7412 17.1299C12.741 20.3681 10.1093 22.9997 6.87109 23C3.63262 23 1.00025 20.3683 1 17.1299C1 13.8913 3.63247 11.2588 6.87109 11.2588ZM14.5898 1.09277C15.265 0.906873 15.9598 1.00521 16.5664 1.34766C16.9969 1.59227 17.3394 1.95425 17.5742 2.38477H19.0127C19.3206 2.38477 19.5866 2.58099 19.6943 2.85352H21.3516C22.2712 2.85359 23.0146 3.59788 23.0146 4.52734V21.3369C23.0145 22.2564 22.2711 22.9999 21.3516 23H12.4766C12.0756 22.9998 11.7432 22.6666 11.7432 22.2656C11.7434 21.8648 12.0757 21.5325 12.4766 21.5322H21.3516C21.459 21.5321 21.5467 21.4443 21.5469 21.3369V4.52734C21.5469 4.41976 21.4591 4.32138 21.3516 4.32129H19.7471V5.91602C19.7471 6.31717 19.4139 6.65039 19.0127 6.65039H11.5371C11.1361 6.65015 10.8037 6.31703 10.8037 5.91602V4.31152H9.19922C9.09171 4.31166 9.00391 4.40026 9.00391 4.51758V9.6543C9.00376 10.0553 8.6706 10.3877 8.26953 10.3877C7.86865 10.3875 7.53628 10.0552 7.53613 9.6543V4.51758C7.53613 3.59793 8.27961 2.84389 9.19922 2.84375H10.8594C10.9695 2.57635 11.233 2.38495 11.5371 2.38477H12.9756C13.3082 1.75868 13.8953 1.28853 14.5898 1.09277ZM6.87109 12.7266C4.44457 12.7266 2.46777 14.7034 2.46777 17.1299C2.46803 19.5562 4.44473 21.5322 6.87109 21.5322C9.29725 21.532 11.2732 19.556 11.2734 17.1299C11.2734 14.7035 9.2974 12.7268 6.87109 12.7266ZM8.69043 15.2217C8.97418 14.9379 9.44379 14.9379 9.72754 15.2217C10.0112 15.5054 10.0113 15.9751 9.72754 16.2588L6.45996 19.5264C6.32305 19.6633 6.13699 19.7421 5.94141 19.7422V19.7324C5.94141 19.7324 5.89289 19.7324 5.87305 19.7324C5.65788 19.7129 5.46216 19.595 5.33496 19.4092L4.39551 18.0098C4.17049 17.6771 4.25814 17.2172 4.60059 16.9922C4.93325 16.7672 5.39314 16.8558 5.61816 17.1982L6.05859 17.8535L8.69043 15.2217ZM19.0127 18.2646C19.4138 18.2646 19.747 18.5969 19.7471 18.998C19.7471 19.3992 19.4139 19.7324 19.0127 19.7324H15.7451C15.344 19.7324 15.0117 19.3992 15.0117 18.998C15.0118 18.5969 15.344 18.2646 15.7451 18.2646H19.0127ZM19.0127 14.9961C19.4139 14.9961 19.7471 15.3293 19.7471 15.7305C19.7469 16.1315 19.4137 16.4639 19.0127 16.4639H15.7451C15.3441 16.4639 15.0119 16.1315 15.0117 15.7305C15.0117 15.3293 15.344 14.9961 15.7451 14.9961H19.0127ZM19.0137 11.7285C19.4145 11.7288 19.7469 12.061 19.7471 12.4619C19.7471 12.8629 19.4146 13.196 19.0137 13.1963H13.876C13.475 13.1961 13.1426 12.8629 13.1426 12.4619C13.1427 12.061 13.4751 11.7288 13.876 11.7285H19.0137ZM19.0127 8.4502C19.4139 8.4502 19.7471 8.78341 19.7471 9.18457C19.747 9.58565 19.4138 9.91797 19.0127 9.91797H11.5371C11.1362 9.91773 10.8038 9.58551 10.8037 9.18457C10.8037 8.78355 11.1361 8.45043 11.5371 8.4502H19.0127ZM15.8428 2.62891C15.5786 2.48214 15.275 2.44321 14.9814 2.52148C14.6001 2.62913 14.2874 2.93215 14.1895 3.31348C14.1014 3.63636 13.817 3.85156 13.4844 3.85156H12.2812V5.18262H18.2793V3.85156H17.0752C16.7427 3.85143 16.4591 3.62648 16.3711 3.31348C16.2928 3.0201 16.1068 2.77563 15.8428 2.62891Z" fill="#212121"/>
</g>
<defs>
<clipPath id="clip0_402_295">
<rect width="24" height="24" fill="white"/>
</clipPath>
</defs>
</svg>

<svg xmlns="http://www.w3.org/2000/svg" width="24" height="24" fill="none" viewBox="0 0 24 24"><g clip-path="url(#a)"><path fill="currentColor" d="M6.871 11.259a5.876 5.876 0 0 1 5.87 5.87A5.875 5.875 0 0 1 6.871 23 5.876 5.876 0 0 1 1 17.13a5.876 5.876 0 0 1 5.871-5.871M14.59 1.093a2.6 2.6 0 0 1 1.976.255c.43.244.773.606 1.008 1.037h1.439c.308 0 .574.196.681.469h1.658c.92 0 1.663.744 1.663 1.673v16.81c0 .92-.744 1.663-1.663 1.663h-8.875a.74.74 0 0 1-.734-.734.74.74 0 0 1 .734-.734h8.875a.196.196 0 0 0 .195-.195V4.527c0-.107-.088-.206-.195-.206h-1.605v1.595a.74.74 0 0 1-.734.734h-7.476a.74.74 0 0 1-.733-.734V4.312H9.199a.2.2 0 0 0-.195.206v5.136a.74.74 0 0 1-.734.734.74.74 0 0 1-.734-.734V4.518c0-.92.744-1.674 1.663-1.674h1.66a.74.74 0 0 1 .678-.46h1.439a2.64 2.64 0 0 1 1.614-1.291M6.87 12.727a4.41 4.41 0 0 0-4.403 4.403 4.41 4.41 0 0 0 4.403 4.402 4.41 4.41 0 0 0 4.402-4.402 4.41 4.41 0 0 0-4.402-4.403m1.82 2.495a.74.74 0 0 1 1.037 0 .74.74 0 0 1 0 1.037L6.46 19.526a.73.73 0 0 1-.519.216v-.01h-.068a.73.73 0 0 1-.538-.323l-.94-1.4a.73.73 0 0 1 .206-1.017.73.73 0 0 1 1.017.206l.44.656zm10.322 3.043a.74.74 0 0 1 .734.733.74.74 0 0 1-.734.734h-3.268a.74.74 0 0 1-.733-.734c0-.401.332-.733.733-.733zm0-3.269a.74.74 0 0 1 .734.734.74.74 0 0 1-.734.734h-3.268a.74.74 0 0 1-.733-.733.74.74 0 0 1 .733-.735zm0-3.267c.401 0 .734.332.734.733a.74.74 0 0 1-.733.734h-5.138a.74.74 0 0 1-.733-.734c0-.401.332-.733.733-.733zm0-3.279a.74.74 0 0 1 .734.735.74.74 0 0 1-.734.733h-7.476a.74.74 0 0 1-.733-.733.74.74 0 0 1 .733-.735zm-3.17-5.821a1.135 1.135 0 0 0-1.653.685.72.72 0 0 1-.706.538H12.28v1.33h5.998v-1.33h-1.204a.734.734 0 0 1-.704-.539 1.1 1.1 0 0 0-.528-.684"/></g><defs><clipPath id="a"><path fill="currentColor" d="M0 0h24v24H0z"/></clipPath></defs></svg>
